temp/img/footer/phone-handle.svg

<svg width="18" height="18" viewBox="0 0 18 18" fill="none" xmlns="http://www.w3.org/2000/svg">
<g clip-path="url(#clip0)">
<path d="M16.6052 2.40309L14.9941 0.793813C14.4861 0.284913 13.8094 0.00488281 13.0905 0.00488281C12.3715 0.00488281 11.6948 0.284913 11.1868 0.793813L9.76241 2.2173C8.7123 3.26741 8.7123 4.97452 9.76241 6.02463L11.0001 7.26232L7.25561 11.0068L6.01791 9.76913C5.50991 9.26023 4.83317 8.9802 4.11425 8.9802C3.39532 8.9802 2.71858 9.26023 2.21058 9.76913L0.787096 11.1926C-0.263016 12.2427 -0.263016 13.9498 0.787096 14.9999L2.39727 16.6092C2.81462 17.0266 4.00924 17.9959 6.09151 17.9959C8.57229 17.9959 11.2021 16.6236 13.9099 13.9166C19.5159 8.31064 18.2414 4.04198 16.6052 2.40309ZM11.0324 3.48641L12.4559 2.06292C12.6309 1.8879 12.8607 1.79995 13.0905 1.79995C13.3202 1.79995 13.55 1.8879 13.725 2.06292L14.697 3.03405L12.0035 5.72665L11.0324 4.75552C10.6815 4.40458 10.6815 3.83734 11.0324 3.48641ZM2.0571 13.7308C1.70617 13.3799 1.70617 12.8127 2.0571 12.4617L3.48059 11.0382C3.65561 10.8632 3.88538 10.7753 4.11514 10.7753C4.34491 10.7753 4.57468 10.8632 4.7497 11.0382L5.72083 12.0094L3.02913 14.702L2.0571 13.7308ZM12.6417 12.6475C9.8746 15.4137 7.6595 16.2008 6.09241 16.2008C4.88164 16.2008 4.0577 15.7314 3.66728 15.3401C3.66369 15.3365 6.35538 12.6439 6.35538 12.6439L6.62195 12.9105C6.79697 13.0855 7.02674 13.1735 7.2565 13.1735C7.48627 13.1735 7.71604 13.0855 7.89106 12.9105L12.9047 7.89688C13.2556 7.54594 13.2556 6.9787 12.9047 6.62777L12.6372 6.3612L15.3307 3.66861C16.2318 4.56973 17.5458 7.7425 12.6417 12.6475Z" fill="#B4EC50"/>
</g>
<defs>
<clipPath id="clip0">
<rect width="18" height="18" fill="white"/>
</clipPath>
</defs>
</svg>

<svg width="18" height="18" viewBox="0 0 18 18" fill="none" xmlns="http://www.w3.org/2000/svg"><g clip-path="url(#clip0)"><path d="M16.605 2.403l-1.61-1.61A2.673 2.673 0 0 0 13.09.006c-.72 0-1.396.28-1.904.789L9.762 2.217a2.694 2.694 0 0 0 0 3.808L11 7.262l-3.744 3.745-1.238-1.238a2.673 2.673 0 0 0-1.904-.789c-.719 0-1.395.28-1.903.79L.787 11.192a2.694 2.694 0 0 0 0 3.807l1.61 1.61c.418.417 1.612 1.386 3.695 1.386 2.48 0 5.11-1.372 7.818-4.08 5.606-5.605 4.331-9.874 2.695-11.513zm-5.573 1.083l1.424-1.423a.895.895 0 0 1 1.269 0l.972.971-2.693 2.693-.972-.971a.897.897 0 0 1 0-1.27zM2.057 13.731a.897.897 0 0 1 0-1.27l1.424-1.423a.895.895 0 0 1 1.269 0l.97.971-2.69 2.693-.973-.971zm10.585-1.083C9.875 15.414 7.66 16.2 6.092 16.2c-1.21 0-2.034-.47-2.425-.86a854.73 854.73 0 0 1 2.688-2.697l.267.267a.895.895 0 0 0 1.27 0l5.013-5.014a.897.897 0 0 0 0-1.27l-.268-.266 2.694-2.692c.9.9 2.215 4.073-2.69 8.979z" fill="#B4EC50"/></g><defs><clipPath id="clip0"><path fill="#fff" d="M0 0h18v18H0z"/></clipPath></defs></svg>
